2f7
albertroad.htmlalbertroad.htmlalbertroad.htmlalbertroad.htmlalbertroad.htmlalbertroad.htmlalbertroad.html<P ALIGN=Right>Niall Vallely
albertroad.htmlalbertroad.html

T:Roaringwater Reel #2, The
M:C|
L:1/8
C:Niall Vallely
R:reel
D:Niall Vallely: Beyond Words
Z:Devin McCabe
K:D
BGed cAag|f~d3 BGed|cAag f/2e/2d ef|deed BGed|
!cAag f~d3|BGed cAag|1f/2e/2d ef d2z2:|2f/2e/2d ef dafd|
!:efda fdef|dBAa fdef|dBGe cAag|1^eff=e dafd:|2f/2f/2f fe deed||



albertroad.htmlalbertroad.htmlalbertroad.htmlalbertroad.htmlalbertroad.htmlalbertroad.html
0

